X:271
T: ICH FAHR DAHIN, WEIL ES MUSS SEYN
N: Z0269
O: Europa, Mitteleuropa, Deutschland
R: Lyrisches Lied, Romanze, Abschieds - Lied
M: 3/4
L: 1/8
K: Bb
F2 | B4B2 | F4e2 | d4c2 | B4
B2 | A4B2 | c4F2 | A4G2 | F4
F2 | B4c2 | d4c2 | e4d2 | B4
B2 | d4e2 | f4g2 | f4dB | c4
B2 | A4B2B2 | d2d2c2c2 | B6

